src/assets/icons/cars/others.svg

<svg width="48" height="48" viewBox="0 0 48 48" fill="none" xmlns="http://www.w3.org/2000/svg">
<g id="Icons / Vertical Cars / Car others">
<path id="Combined Shape" fill-rule="evenodd" clip-rule="evenodd" d="M13.375 20C11.5112 20 10 21.5671 10 23.5C10 25.4329 11.5112 27 13.375 27C15.2388 27 16.75 25.4329 16.75 23.5C16.75 21.5671 15.2388 20 13.375 20ZM13.375 21.75C14.3057 21.75 15.0625 22.5349 15.0625 23.5C15.0625 24.4651 14.3057 25.25 13.375 25.25C12.4443 25.25 11.6875 24.4651 11.6875 23.5C11.6875 22.5349 12.4443 21.75 13.375 21.75ZM23.5 20C21.6362 20 20.125 21.5671 20.125 23.5C20.125 25.4329 21.6362 27 23.5 27C25.3638 27 26.875 25.4329 26.875 23.5C26.875 21.5671 25.3638 20 23.5 20ZM23.5 21.75C24.4307 21.75 25.1875 22.5349 25.1875 23.5C25.1875 24.4651 24.4307 25.25 23.5 25.25C22.5693 25.25 21.8125 24.4651 21.8125 23.5C21.8125 22.5349 22.5693 21.75 23.5 21.75ZM33.625 20C31.7612 20 30.25 21.5671 30.25 23.5C30.25 25.4329 31.7612 27 33.625 27C35.4888 27 37 25.4329 37 23.5C37 21.5671 35.4888 20 33.625 20ZM33.625 21.75C34.5557 21.75 35.3125 22.5349 35.3125 23.5C35.3125 24.4651 34.5557 25.25 33.625 25.25C32.6943 25.25 31.9375 24.4651 31.9375 23.5C31.9375 22.5349 32.6943 21.75 33.625 21.75Z" fill="#253238"/>
</g>
</svg>

<svg width="48" height="48" viewBox="0 0 48 48" fill="none" xmlns="http://www.w3.org/2000/svg"><path fill-rule="evenodd" clip-rule="evenodd" d="M13.375 20C11.511 20 10 21.567 10 23.5s1.511 3.5 3.375 3.5 3.375-1.567 3.375-3.5-1.511-3.5-3.375-3.5zm0 1.75c.93 0 1.688.785 1.688 1.75s-.757 1.75-1.688 1.75c-.93 0-1.688-.785-1.688-1.75s.757-1.75 1.688-1.75zM23.5 20c-1.864 0-3.375 1.567-3.375 3.5S21.636 27 23.5 27s3.375-1.567 3.375-3.5S25.364 20 23.5 20zm0 1.75c.93 0 1.688.785 1.688 1.75s-.757 1.75-1.688 1.75c-.93 0-1.688-.785-1.688-1.75s.757-1.75 1.688-1.75zM33.625 20c-1.864 0-3.375 1.567-3.375 3.5s1.511 3.5 3.375 3.5S37 25.433 37 23.5 35.489 20 33.625 20zm0 1.75c.93 0 1.688.785 1.688 1.75s-.757 1.75-1.688 1.75c-.93 0-1.688-.785-1.688-1.75s.757-1.75 1.688-1.75z" fill="#253238"/></svg>
